X: 1
T: Mary Young And Fair
M: 6/8
L: 1/8
R: jig
K: Amin
E|:A>BA c2d|e2c d>cB|e2A A>BA|G3 z2 E|
A>BA c2d|e2c deg|e2c dcB|1A3 z2E:|2A3 z2 e/g/||
a>ba g2f|e2c deg|e2A A>BA|G3 z2 E|
A>BA c2d|e2c agf|e2c dcB|A3 z2 e/g/|
a>ba g2f|e2c deg|e2A A>BA|G3 z2 E|
c>Bc d>cd|e>de c'2 b/a/|e2c d>cB|A3-A3|
